X:1
T:Athole commers, The
T:Athole Cummers [1]
M:C
L:1/8
R:
B:Robert Mackintosh – “A Fourth Collection of New Strathspey Reels, also some Famous old Reels” (1804, p. 20)
N:Dedicated to the Dutchess [sic] of Manchester
N:Robert “Red Rob” Mackintosh (c. 1745-1808) was a Scottish violinist and
N:composer active in Edinburgh at the end of the 18th century. Originally from
N:Tullymet, near Pitlochry, Perthshire.  He moved to London in the last decade
N:of his life.
Z:AK/Fiddler’s Companion
K:Emin
F|E/E/E E2 E>Fd>F|EE/E/ E2 F>DA>F|E/E/E E2 E>F~B>A|B<dA<B FDD:|
|:d|B<EB>A BEEe|dE~B>A F<DD<d|B<E~B>A d>e~f>e|d/^c/B/A/ dA FDD:|
f|e/e/e e2 e>fb>f|e/e/e e2 fdaf|e/e/e e2 e>fb>f|g<eb<e f<da<f|
g<eb<e g<eb<e|(a/g/f/e/) b<e d>fa<f|(g<ee<B) d>ef>e|(d/^c/B/A/) d>A F<DD||
|:e|d<ETB<A BEEe|dETB>A FDDd|B<ETB>A d>eTf>e|(d/^c/B/A/) dA F<DD:|]

